images/Group.svg

<svg width="42" height="50" viewBox="0 0 42 50" fill="none" xmlns="http://www.w3.org/2000/svg">
<path d="M34.3355 27.1403C34.3355 28.1317 33.9442 29.0447 33.2529 29.7056L33.3007 29.8274C33.492 30.3231 33.5833 30.8448 33.5616 31.3796C33.5137 32.5362 32.9572 33.5971 32.0311 34.2928L31.7528 34.5058V34.5885C31.7528 36.3798 30.2875 37.8364 28.4831 37.8364H22.2045V40.3931C22.2045 41.2627 22.5437 42.0801 23.1568 42.6845C23.7698 43.3019 24.5829 43.641 25.4525 43.641C26.9439 43.641 28.2005 42.6323 28.5831 41.2627H25.4525C24.9742 41.2627 24.5829 40.8713 24.5829 40.3931C24.5829 39.9104 24.9742 39.5235 25.4525 39.5235H29.5701C30.0527 39.5235 30.4397 39.9104 30.4397 40.3931C30.4397 43.141 28.2048 45.3802 25.4525 45.3802C24.1177 45.3802 22.8654 44.8585 21.9263 43.915C20.9871 42.9845 20.4653 41.7322 20.4653 40.3931V37.8364H13.3824C12.9041 37.8364 12.5128 37.4495 12.5128 36.9668C12.5128 36.4885 12.9041 36.0972 13.3824 36.0972H28.4831C29.2049 36.0972 29.8049 35.6059 29.9658 34.945H29.531C29.0527 34.945 28.6614 34.5537 28.6614 34.0754C28.6614 33.5928 29.0527 33.2058 29.531 33.2058H30.5919L30.9875 32.9058C31.4919 32.5232 31.7963 31.9405 31.8224 31.3101C31.8354 31.0187 31.7876 30.7318 31.6789 30.4578L31.6223 30.31H30.3397C29.8571 30.31 29.4701 29.9187 29.4701 29.4404C29.4701 28.9621 29.8571 28.5708 30.3397 28.5708H31.9137L31.9224 28.5665C32.3528 28.223 32.5963 27.7142 32.5963 27.1621C32.5963 26.7099 32.4354 26.3011 32.1441 25.9924L31.8615 25.6924H30.3397C29.8571 25.6924 29.4701 25.3011 29.4701 24.8228C29.4701 24.3402 29.8571 23.9532 30.3397 23.9532H32.1311C32.4267 23.5575 32.5963 23.0793 32.5963 22.5879C32.5963 21.9314 32.2311 21.327 31.6484 21.0096C31.3702 20.8618 31.0832 20.7922 30.7962 20.7922H19.6262C19.1479 20.7922 18.7566 20.4009 18.7566 19.9226C18.7566 19.44 19.1479 19.053 19.6262 19.053H20.4697V11.8962L20.461 11.7483C20.461 11.7005 20.4523 11.6483 20.4393 11.5962C20.2436 10.6961 19.3957 9.98304 18.3783 9.86565L17.9826 9.81782C17.8044 9.79608 17.6783 9.87869 17.6217 9.93087C17.5652 9.98304 17.4696 10.0917 17.4696 10.27L17.4739 11.8309C17.4739 13.3093 17.1869 14.7528 16.6173 16.1181C16.0478 17.4921 15.2216 18.7182 14.1694 19.7661L10.8867 23.0184V38.9104C10.8867 39.3887 10.4997 39.78 10.0171 39.78H7.49521C7.01693 39.78 6.62561 39.3887 6.62561 38.9104C6.62561 38.4278 7.01693 38.0408 7.49521 38.0408H9.14746V21.2096H7.49521C7.01693 21.2096 6.62561 20.8183 6.62561 20.34C6.62561 19.8617 7.01693 19.4704 7.49521 19.4704H10.0171C10.4997 19.4704 10.8867 19.8617 10.8867 20.34V20.5705L12.9433 18.5312C13.8346 17.6442 14.5303 16.6094 15.0129 15.4528C15.4912 14.2963 15.7347 13.0832 15.7347 11.8353L15.7304 10.2918C15.7304 9.6439 15.9999 9.04822 16.4652 8.63081C16.9348 8.2134 17.5609 8.01774 18.1826 8.09166L18.5783 8.13948C19.2783 8.21775 19.9218 8.46124 20.4653 8.82647V6.86117C20.4653 6.77856 20.4827 6.70464 20.5045 6.63072C20.5088 6.61333 20.5132 6.59594 20.5175 6.57855C20.5436 6.50463 20.574 6.43506 20.6175 6.36984H20.6219L24.7351 0.373929C24.9003 0.139137 25.1655 0 25.4525 0C25.7395 0 26.0091 0.139137 26.1699 0.373929L30.2875 6.36984C30.3875 6.51333 30.4397 6.6829 30.4397 6.86117V16.6051C30.4397 17.0834 30.0527 17.4747 29.5701 17.4747C29.0918 17.4747 28.7005 17.0834 28.7005 16.6051V7.13074L25.4525 2.40445L22.9915 5.99156H25.4525C25.9351 5.99156 26.3221 6.37854 26.3221 6.86117V16.5572C26.3221 17.0355 25.9351 17.4268 25.4525 17.4268C24.9742 17.4268 24.5829 17.0355 24.5829 16.5572V7.73077H22.2045L22.2089 19.053H30.7962C31.3702 19.053 31.9398 19.1965 32.4441 19.4661C33.6224 20.0965 34.3355 21.2879 34.3355 22.5879C34.3355 23.4401 34.0572 24.2793 33.5572 24.962C34.0616 25.575 34.3355 26.3403 34.3355 27.1403Z" fill="#C29F5B"/>
<path d="M5.81333 23.6818C5.33331 23.6818 4.94373 24.0714 4.94373 24.5514V34.6988C4.94373 35.1788 5.33331 35.5684 5.81333 35.5684C6.29335 35.5684 6.68293 35.1788 6.68293 34.6988V24.5514C6.68293 24.071 6.29378 23.6818 5.81333 23.6818Z" fill="#C29F5B"/>
<path d="M40.6487 25.2981C40.3787 23.9784 39.9761 22.6797 39.4521 21.4379C38.9369 20.2196 38.3004 19.0447 37.559 17.9451C36.8251 16.8577 35.982 15.8337 35.052 14.9028C34.6685 14.5189 34.2663 14.1467 33.8567 13.7967C33.491 13.4845 32.9423 13.528 32.6305 13.8932C32.3188 14.2584 32.3618 14.8076 32.7271 15.1194C33.1019 15.4394 33.4697 15.7803 33.821 16.1316C34.6724 16.9842 35.4446 17.9216 36.1164 18.9173C36.7955 19.9239 37.3781 20.9996 37.849 22.1144C38.3291 23.2506 38.6969 24.4389 38.9439 25.6463C39.1974 26.8864 39.3261 28.163 39.3261 29.4408C39.3261 30.7187 39.1974 31.9953 38.9439 33.2354C38.6973 34.4428 38.3291 35.6311 37.849 36.7673C37.3781 37.8816 36.7951 38.9573 36.1164 39.9643C35.4446 40.96 34.6728 41.8975 33.821 42.7506C32.9697 43.6028 32.034 44.3763 31.0387 45.0494C30.0343 45.7289 28.9608 46.3124 27.8469 46.7842C26.7133 47.2642 25.5268 47.6334 24.3206 47.8803C21.844 48.3878 19.2208 48.3878 16.7442 47.8803C15.5376 47.6329 14.3511 47.2642 13.2175 46.7842C12.1044 46.3133 11.0305 45.7294 10.0257 45.0494C9.03039 44.3763 8.09426 43.6028 7.24379 42.751C6.39289 41.8988 5.62068 40.9613 4.94848 39.9648C4.26932 38.9578 3.68625 37.8821 3.21579 36.7677C2.73621 35.632 2.36793 34.4437 2.12096 33.2358C1.86747 31.9962 1.73921 30.7196 1.73921 29.4413C1.73921 28.163 1.86747 26.8864 2.12096 25.6468C2.36793 24.4389 2.73621 23.2506 3.21579 22.1149C3.68668 21.0005 4.26932 19.9243 4.94848 18.9178C5.62068 17.9212 6.39332 16.9838 7.24423 16.1316C8.0947 15.2798 9.03083 14.5063 10.0261 13.8328C11.0313 13.1532 12.1053 12.5692 13.2184 12.0979C13.6606 11.9105 13.8671 11.4001 13.6802 10.9579C13.4923 10.5157 12.9823 10.3096 12.5401 10.4961C11.324 11.0113 10.15 11.6492 9.0517 12.3923C7.96469 13.128 6.94247 13.9723 6.01374 14.9024C5.08457 15.8329 4.24105 16.8564 3.50667 17.9447C2.7649 19.0443 2.12792 20.2196 1.61355 21.4375C1.08918 22.6788 0.686551 23.9776 0.416974 25.2976C0.140441 26.6512 0 28.0451 0 29.44C0 30.8348 0.140441 32.2288 0.416974 33.5823C0.686986 34.9024 1.08918 36.2011 1.61355 37.4429C2.12792 38.6604 2.76447 39.8352 3.50667 40.9357C4.24062 42.024 5.08413 43.0475 6.01374 43.978C6.94247 44.9085 7.96469 45.7529 9.0517 46.4881C10.15 47.2307 11.3235 47.869 12.5397 48.3838C13.7789 48.9086 15.0759 49.3121 16.3955 49.5826C17.7486 49.8596 19.1408 50 20.5331 50C21.9253 50 23.3175 49.8596 24.6706 49.5826C25.9898 49.3121 27.2868 48.9086 28.526 48.3838C29.743 47.8682 30.917 47.2307 32.014 46.4881C33.1006 45.7533 34.1228 44.9085 35.052 43.978C35.982 43.0467 36.8255 42.0231 37.559 40.9353C38.3008 39.8356 38.9378 38.6608 39.4521 37.4425C39.9761 36.2007 40.3787 34.902 40.6487 33.5823C40.9253 32.2279 41.0657 30.8344 41.0657 29.44C41.0657 28.0456 40.9253 26.6525 40.6487 25.2981Z" fill="#C29F5B"/>
</svg>

<svg width="42" height="50" fill="none" xmlns="http://www.w3.org/2000/svg"><path d="M34.336 27.14a3.52 3.52 0 01-1.083 2.566l.048.121c.191.496.282 1.018.26 1.553a3.826 3.826 0 01-1.53 2.913l-.278.213v.083c0 1.79-1.465 3.247-3.27 3.247h-6.279v2.557c0 .87.34 1.687.953 2.291a3.209 3.209 0 002.296.957 3.255 3.255 0 003.13-2.378h-3.13a.87.87 0 110-1.74h4.117c.483 0 .87.387.87.87a4.993 4.993 0 01-4.988 4.987 4.942 4.942 0 01-3.526-1.465 4.924 4.924 0 01-1.46-3.522v-2.557h-7.084a.87.87 0 110-1.739h15.101a1.52 1.52 0 001.483-1.152h-.435a.87.87 0 110-1.74h1.06l.396-.3a2.108 2.108 0 00.692-2.447l-.057-.148H30.34a.87.87 0 110-1.74h1.574l.008-.003a1.78 1.78 0 00.674-1.405c0-.452-.16-.86-.452-1.17l-.282-.3H30.34a.87.87 0 110-1.739h1.791a2.29 2.29 0 00.465-1.365 1.802 1.802 0 00-1.8-1.796h-11.17a.87.87 0 110-1.74h.844v-7.156l-.009-.148c0-.047-.009-.1-.022-.152-.195-.9-1.043-1.613-2.06-1.73l-.396-.048a.452.452 0 00-.361.113.452.452 0 00-.152.339l.004 1.56a11.08 11.08 0 01-.857 4.288 11.153 11.153 0 01-2.448 3.648l-3.282 3.252V38.91a.87.87 0 01-.87.87H7.495a.87.87 0 110-1.74h1.652V21.21H7.495a.872.872 0 01-.87-.87c0-.478.392-.87.87-.87h2.522a.87.87 0 01.87.87v.23l2.056-2.039a9.46 9.46 0 002.07-3.078 9.406 9.406 0 00.722-3.618l-.005-1.543c0-.648.27-1.244.735-1.661a2.196 2.196 0 011.718-.54l.395.048c.7.079 1.344.322 1.887.687V6.861c0-.082.018-.156.04-.23l.012-.052a.922.922 0 01.1-.21h.005L24.735.375a.874.874 0 011.435 0l4.117 5.996c.1.143.153.313.153.491v9.744a.87.87 0 11-1.74 0V7.131l-3.247-4.727-2.462 3.588h2.462c.482 0 .87.387.87.87v9.695a.87.87 0 11-1.74 0V7.731h-2.378l.004 11.322h8.587c.574 0 1.144.143 1.648.413a3.532 3.532 0 011.892 3.122 4.04 4.04 0 01-.779 2.374c.505.613.779 1.378.779 2.178z" fill="#C29F5B"/><path d="M5.813 23.682a.87.87 0 00-.87.87v10.147a.87.87 0 001.74 0V24.55a.87.87 0 00-.87-.87z" fill="#C29F5B"/><path d="M40.649 25.298a20.542 20.542 0 00-1.197-3.86 20.645 20.645 0 00-4.4-6.535 20.757 20.757 0 00-1.195-1.106.87.87 0 10-1.13 1.322 18.958 18.958 0 013.39 3.798 18.746 18.746 0 013.21 10.523c0 1.279-.13 2.555-.383 3.795a18.716 18.716 0 01-2.828 6.73 18.963 18.963 0 01-5.077 5.084 18.664 18.664 0 01-6.718 2.83c-2.477.509-5.1.509-7.577.001a18.695 18.695 0 01-6.718-2.83 18.914 18.914 0 01-5.078-5.085 18.759 18.759 0 01-3.21-10.523 18.759 18.759 0 015.505-13.31 18.805 18.805 0 015.974-4.034.87.87 0 00-.677-1.602 20.536 20.536 0 00-6.526 4.406 20.576 20.576 0 00-4.4 6.535A20.465 20.465 0 000 29.44a20.51 20.51 0 006.014 14.538 20.533 20.533 0 006.526 4.406A20.428 20.428 0 0020.533 50a20.433 20.433 0 0011.48-3.512 20.661 20.661 0 005.546-5.553 20.557 20.557 0 001.893-3.492 20.542 20.542 0 001.614-8.003c0-1.394-.14-2.788-.417-4.142z" fill="#C29F5B"/></svg>
